X: 249
T:Sergeant Cahill's Favourite
C:Traditional
Z:Gordon Turnbull, Edinburgh
N:Play 3 times through
R:Slide
M:12/8
L:1/8
K:Dmix
D2 E G2 A BAB d2 A  | BAB d2 B A2 G E2 G |\
D2 E G2 A BAB d2 B | ABA B2 A G3 G3 :||
g2 d e2 d g2 d e2 d | B3 BAG A3 AGE |\
D2 E G2 A BAB d2 B | ABA B2 A G3 G3 :||
<end>
<start>
